assets/icons/qvision/remove_from_queue.svg

<svg xmlns="http://www.w3.org/2000/svg" enable-background="new 0 0 24 24" height="24" viewBox="0 0 24 24" width="24"><g><rect fill="none" height="24" width="24" x="0"/></g><g><g><g><path d="M21,3H3C1.89,3,1,3.89,1,5v12c0,1.1,0.89,2,2,2h5v2h8v-2h5c1.1,0,1.99-0.9,1.99-2L23,5C23,3.89,22.1,3,21,3z M21,17H3V5 h18V17z M16,10v2H8v-2H16z"/></g></g></g></svg>

<svg width="24" height="24" viewBox="0 0 24 24" fill="none" xmlns="http://www.w3.org/2000/svg">
<g clip-path="url(#clip0_147_1584)">
<path d="M21 3H3C1.89 3 1 3.89 1 5V17C1 18.1 1.89 19 3 19H8V21H16V19H21C22.1 19 22.99 18.1 22.99 17L23 5C23 3.89 22.1 3 21 3ZM21 17H3V5H21V17ZM16 10V12H8V10H16Z" fill="#323232"/>
</g>
<defs>
<clipPath id="clip0_147_1584">
<rect width="24" height="24" fill="white"/>
</clipPath>
</defs>
</svg>
